dashboard/public/icon.svg

<svg width="32" height="30" viewBox="0 0 32 30" fill="none" xmlns="http://www.w3.org/2000/svg">
<g clip-path="url(#clip0_228_400)">
<path d="M18.713 29.8096C18.9286 29.9328 19.173 29.9966 19.4212 29.9945C19.6544 29.9959 19.8841 29.938 20.0888 29.8262L29.5766 24.6931C30.5603 24.155 31.1464 23.2434 31.1464 22.2578V16.5588C31.1424 16.3834 31.0921 16.2121 31.0005 16.0624C30.9089 15.9127 30.7794 15.7898 30.625 15.7064L30.1257 15.405L30.1017 15.3883C30.4207 15.1418 30.6803 14.8266 30.8611 14.4662C31.0419 14.1058 31.1395 13.7094 31.1464 13.3062V7.60172C31.1432 7.427 31.094 7.25623 31.0037 7.10658C30.9135 6.95693 30.7854 6.8337 30.6324 6.74928L28.1121 5.20712C27.9038 5.08619 27.6681 5.0205 27.4273 5.01629C27.1865 5.01208 26.9487 5.0695 26.7363 5.18308L23.8388 6.74928V2.58693C23.8357 2.41126 23.7858 2.2396 23.6941 2.08972C23.6024 1.93984 23.4723 1.8172 23.3173 1.73449L20.797 0.190477C20.5886 0.0698308 20.3528 0.00446407 20.112 0.000580492C19.8712 -0.00330309 19.6334 0.0544263 19.4212 0.168289L1.5699 9.80771C0.588018 10.3477 0 11.2574 0 12.243V17.9475C0.00381191 18.123 0.0540791 18.2944 0.14568 18.4441C0.237281 18.5938 0.366941 18.7166 0.52145 18.7999L3.04179 20.344C3.25055 20.4636 3.48622 20.5284 3.7268 20.5323C3.96738 20.5361 4.20502 20.479 4.41753 20.3661L7.84209 18.517V22.6812C7.84551 22.857 7.89581 23.0288 7.98781 23.1786C8.07981 23.3285 8.21016 23.4511 8.36539 23.5337L10.8857 25.0777C11.1008 25.202 11.3455 25.2659 11.5939 25.2626C11.8268 25.2632 12.0562 25.206 12.2615 25.0962L15.6712 23.2471V27.4039C15.6747 27.5794 15.7248 27.7509 15.8164 27.9008C15.9081 28.0506 16.0379 28.1733 16.1927 28.2563L18.713 29.8096ZM2.7108 13.787C2.7108 12.8624 3.26553 12.0193 4.19009 11.5144L21.128 2.36688V6.75668C21.128 7.60357 20.6564 8.39314 19.8576 8.90719L9.41383 14.5507C9.34541 14.5877 9.28069 14.6265 9.21598 14.6672L2.7108 18.1749V13.787ZM10.5529 18.5207C10.5529 17.6683 11.03 16.8732 11.8473 16.361L22.2781 10.7249C22.3502 10.686 22.4186 10.6435 22.4871 10.601L28.4578 7.37428V11.7622C28.4578 12.6868 27.9031 13.53 26.9786 14.0348L26.949 14.0514C26.8767 14.0745 26.8068 14.1042 26.74 14.1402L17.2504 19.2752C17.1635 19.3214 17.0803 19.3732 16.9989 19.4268L10.5566 22.9087L10.5529 18.5207ZM18.3765 23.2619C18.3765 22.4298 18.8314 21.6531 19.6061 21.1391L28.443 16.3647V20.7286C28.443 21.6531 27.8883 22.4963 26.9638 23.0011L18.3709 27.6498L18.3765 23.2619Z" fill="#17CD8C"/>
</g>
<defs>
<clipPath id="clip0_228_400">
<rect width="31.1483" height="30" fill="white"/>
</clipPath>
</defs>
</svg>

<svg xmlns="http://www.w3.org/2000/svg" fill="none" viewBox="0 0 32 30">
	<g clip-path="url(#a)">
		<path fill="#17CD8C"
			d="M18.71 29.81a1.4 1.4 0 0 0 1.38.02l9.49-5.14a2.81 2.81 0 0 0 1.57-2.43v-5.7a1 1 0 0 0-.52-.85l-.5-.3-.03-.02a2.69 2.69 0 0 0 1.05-2.08V7.6a1 1 0 0 0-.52-.86L28.11 5.2a1.41 1.41 0 0 0-1.37-.03l-2.9 1.57V2.59a.99.99 0 0 0-.52-.86L20.8.2a1.41 1.41 0 0 0-1.38-.02L1.57 9.8A2.82 2.82 0 0 0 0 12.24v5.7a1 1 0 0 0 .52.86l2.52 1.54a1.42 1.42 0 0 0 1.38.03l3.42-1.85v4.16a.99.99 0 0 0 .53.85l2.52 1.55c.21.12.46.19.7.18.24 0 .47-.05.67-.16l3.41-1.85v4.15a1 1 0 0 0 .52.86l2.52 1.55Zm-16-16.02c0-.93.56-1.77 1.48-2.28l16.94-9.14v4.39a2.6 2.6 0 0 1-1.27 2.15L9.4 14.55l-.2.12-6.5 3.5V13.8Zm7.84 4.73c0-.85.48-1.65 1.3-2.16l10.43-5.64c.07-.03.14-.08.2-.12l5.98-3.23v4.4c0 .92-.56 1.76-1.48 2.26l-.03.02-.21.09-9.49 5.14c-.09.04-.17.1-.25.15l-6.44 3.48v-4.39Zm7.83 4.74c0-.83.45-1.6 1.23-2.12l8.83-4.78v4.37c0 .92-.55 1.77-1.48 2.27l-8.59 4.65v-4.39Z" />
	</g>
	<defs>
		<clipPath id="a">
			<path fill="#fff" d="M0 0h31.15v30H0z" />
		</clipPath>
	</defs>
</svg>
